!!!OTL: Shounan de huaer jiefang
!!!ARE: Asia, China,ÿQinghai Huzhu
!! I, 242
!!!SCT: C2085
!!!YEM: Copyright 1995, estate of Helmut Schaffrath.
**kern
*ICvox
*Ivox
!! Mixed meters:  3/4; 2/4
*M2/4
*k[]
*C:
{16d
16e
16g
16a
2e
=1
16d
16e
8g
16a
16cc
16dd
16ee
=2
4.dd
16ee
16gg
=3
8ee
16g
16g
16a
16cc
16dd
16ee
=4
4cc}
{8r
16e
16e
=5
16d
16e
16g
16a
4e
=6
16d
16e
8g
16a
16cc
16dd
16ee
=7
8gg
8ee
16g
16a
16cc
16dd
=8
16cc
16dd
16cc
16a
8g
[8g
=9
4.g]
8e}
==
!!!AGN: Shange, Tuzuling
!!!ONB: ESAC (Essen Associative Code) Database: SENGANSU
!!!AMT: irregular
!!!AIN: vox
!!!EED: Helmut Schaffrath
!!!EEV: 1.0
*-
!!!ONB: Tied note syntax fixed by Craig Sapp, 2004/05/03/
